storage/app/icons/phosphoricons/bold/memory-bold.svg

<svg xmlns="http://www.w3.org/2000/svg" fill="currentColor" viewBox="0 0 256 256"><path d="M232 52H24A20 20 0 0 0 4 72v128a12 12 0 0 0 24 0v-12h20v12a12 12 0 0 0 24 0v-12h20v12a12 12 0 0 0 24 0v-12h24v12a12 12 0 0 0 24 0v-12h20v12a12 12 0 0 0 24 0v-12h20v12a12 12 0 0 0 24 0V72a20 20 0 0 0-20-20M28 76h200v88H28Zm92 64v-40a12 12 0 0 0-12-12H56a12 12 0 0 0-12 12v40a12 12 0 0 0 12 12h52a12 12 0 0 0 12-12m-24-12H68v-16h28Zm52 24h52a12 12 0 0 0 12-12v-40a12 12 0 0 0-12-12h-52a12 12 0 0 0-12 12v40a12 12 0 0 0 12 12m12-40h28v16h-28Z"/></svg>

<svg xmlns="http://www.w3.org/2000/svg" viewBox="0 0 256 256" fill="currentColor"><path d="M232,52H24A20,20,0,0,0,4,72V200a12,12,0,0,0,24,0V188H48v12a12,12,0,0,0,24,0V188H92v12a12,12,0,0,0,24,0V188h24v12a12,12,0,0,0,24,0V188h20v12a12,12,0,0,0,24,0V188h20v12a12,12,0,0,0,24,0V72A20,20,0,0,0,232,52ZM28,76H228v88H28Zm92,64V100a12,12,0,0,0-12-12H56a12,12,0,0,0-12,12v40a12,12,0,0,0,12,12h52A12,12,0,0,0,120,140ZM96,128H68V112H96Zm52,24h52a12,12,0,0,0,12-12V100a12,12,0,0,0-12-12H148a12,12,0,0,0-12,12v40A12,12,0,0,0,148,152Zm12-40h28v16H160Z"/></svg>
